**harm	**harte	**timestamp	**phrase	**leadinstrument	**kern
*M4/4	*M4/4	*	*	*	*
*B-:	*B-:	*	*	*	*B-:
1r;	N	0	.	r	1r;
=1	=1	=1	=1	=1	=1
*>A_intro	*>A_intro	*>A_intro	*>A_intro	*>A_intro	*>A_intro
1V	F:sus4(b7,9)	0.255	newline	piano	1F 1a 1cc
=2	=2	=2	=2	=2	=2
1I7	B-:maj7	4.569	.	piano	1B- 1dd 1ff 1aa
=3	=3	=3	=3	=3	=3
1V	F:sus4(b7,9)	8.883	.	piano	1F 1a 1cc
=4	=4	=4	=4	=4	=4
1I7	B-:maj7	13.197	.	piano	1B- 1dd 1ff 1aa
=5	=5	=5	=5	=5	=5
*>B_verse	*>B_verse	*>B_verse	*>B_verse	*>B_verse	*>B_verse
2V	F:sus4(b7,9)	17.511	newline	voice	2F 2a 2cc
2V7	F:7	19.729	.	voice	2F 2a 2cc 2ee-
=6	=6	=6	=6	=6	=6
2I7	B-:maj9	21.946	.	voice	2B- 2dd 2ff 2aa
4ii7	C:min7	24.164	.	voice	4C 4e- 4g 4b-
4Ib	B-:maj(9)/3	25.272	.	voice	4b- 4D 4ff
=7	=7	=7	=7	=7	=7
2IV7	E-:maj6(7)	26.381	.	voice	2E- 2g 2b- 2dd
2V7	F:7	28.599	.	voice	2F 2a 2cc 2ee-
=8	=8	=8	=8	=8	=8
2I7	B-:maj7	30.816	.	voice	2B- 2dd 2ff 2aa
4ii7	C:min7(11)	33.034	.	voice	4C 4e- 4g 4b-
4Im7b	B-:7/3	34.143	.	voice	4b- 4D 4ff 4aa
=9	=9	=9	=9	=9	=9
2IV	E-:maj	35.251	newline	voice	2E- 2g 2b-
2V7	F:7	37.413	.	voice	2F 2a 2cc 2ee-
=10	=10	=10	=10	=10	=10
2Ib	B-:maj/3	39.574	.	voice	2b- 2D 2ff
2vi7	G:min7	41.736	.	voice	2G 2b- 2dd 2ff
=11	=11	=11	=11	=11	=11
1-VI	G-:maj	43.897	.	voice	1G- 1b- 1dd-
=12	=12	=12	=12	=12	=12
2V	F:sus4(b7,9)	48.22	.	voice	2F 2a 2cc
2V7	F:7	50.382	.	voice	2F 2a 2cc 2ee-
=13	=13	=13	=13	=13	=13
*>B2_verse	*>B2_verse	*>B2_verse	*>B2_verse	*>B2_verse	*>B2_verse
2V	F:sus4(b7,9)	52.543	newline	voice	2F 2a 2cc
2V7	F:7	54.715	.	voice	2F 2a 2cc 2ee-
=14	=14	=14	=14	=14	=14
2I7	B-:maj9	56.887	.	voice	2B- 2dd 2ff 2aa
4ii7	C:min7	59.059	.	voice	4C 4e- 4g 4b-
4Ib	B-:maj(9)/3	60.145	.	voice	4b- 4D 4ff
=15	=15	=15	=15	=15	=15
2IV7	E-:maj7	61.23	.	voice	2E- 2g 2b- 2dd
2V7	F:7	63.402	.	voice	2F 2a 2cc 2ee-
=16	=16	=16	=16	=16	=16
2I7	B-:maj7	65.574	.	voice	2B- 2dd 2ff 2aa
4ii7	C:min7	67.746	.	voice	4C 4e- 4g 4b-
4Im7b	B-:7/3	68.832	.	voice	4b- 4D 4ff 4aa
=17	=17	=17	=17	=17	=17
2IV7	E-:maj7	69.918	newline	voice	2E- 2g 2b- 2dd
2V7	F:7	72.053	.	voice	2F 2a 2cc 2ee-
=18	=18	=18	=18	=18	=18
4I7	B-:maj7	74.188	.	voice	4B- 4dd 4ff 4aa
4iii7	D:min7	75.255	.	voice	4D 4f 4a 4cc
2vi7	G:min7	76.323	.	voice	2G 2b- 2dd 2ff
=19	=19	=19	=19	=19	=19
1-VI	G-:maj	78.458	.	voice	1G- 1b- 1dd-
=20	=20	=20	=20	=20	=20
1V	F:sus4(b7,9)	82.728	.	voice	1F 1a 1cc
=21	=21	=21	=21	=21	=21
*>C_chorus	*>C_chorus	*>C_chorus	*>C_chorus	*>C_chorus	*>C_chorus
2IV	E-:maj	86.998	newline	voice	2E- 2g 2b-
2V7	F:7	89.013	.	voice	2F 2a 2cc 2ee-
=22	=22	=22	=22	=22	=22
4I	B-:maj	91.029	.	voice	4B- 4dd 4ff
4iii7	D:min7	92.037	.	voice	4D 4f 4a 4cc
2vi7	G:min7	93.044	.	voice	2G 2b- 2dd 2ff
=23	=23	=23	=23	=23	=23
2IV	E-:maj	95.06	.	voice	2E- 2g 2b-
2V7	F:7	97.076	.	voice	2F 2a 2cc 2ee-
=24	=24	=24	=24	=24	=24
4I	B-:maj	99.091	.	voice	4B- 4dd 4ff
4iii7	D:min7	100.099	.	voice	4D 4f 4a 4cc
2vi7	G:min7	101.107	.	voice	2G 2b- 2dd 2ff
=25	=25	=25	=25	=25	=25
2IV	E-:maj	103.122	newline	voice	2E- 2g 2b-
2V7	F:7	105.144	.	voice	2F 2a 2cc 2ee-
=26	=26	=26	=26	=26	=26
4I	B-:maj	107.165	.	voice	4B- 4dd 4ff
4iii7	D:min7	108.175	.	voice	4D 4f 4a 4cc
2vi7	G:min7	109.186	.	voice	2G 2b- 2dd 2ff
=27	=27	=27	=27	=27	=27
1-VI	G-:maj	111.207	.	voice	1G- 1b- 1dd-
=28	=28	=28	=28	=28	=28
1V	F:sus4(b7,9)	115.25	.	voice	1F 1a 1cc
=29	=29	=29	=29	=29	=29
*>B2_verse	*>B2_verse	*>B2_verse	*>B2_verse	*>B2_verse	*>B2_verse
2V	F:sus4(b7,9)	119.292	newline	voice	2F 2a 2cc
2V7	F:7	121.415	.	voice	2F 2a 2cc 2ee-
=30	=30	=30	=30	=30	=30
2I7	B-:maj7	123.538	.	voice	2B- 2dd 2ff 2aa
4ii7	C:min7	125.662	.	voice	4C 4e- 4g 4b-
4Ib	B-:maj/3	126.723	.	voice	4b- 4D 4ff
=31	=31	=31	=31	=31	=31
2IV7	E-:maj7	127.785	.	voice	2E- 2g 2b- 2dd
2V7	F:7	129.908	.	voice	2F 2a 2cc 2ee-
=32	=32	=32	=32	=32	=32
2I7	B-:maj7	132.031	.	voice	2B- 2dd 2ff 2aa
4ii7	C:min7	134.154	.	voice	4C 4e- 4g 4b-
4Im7b	B-:7/3	135.216	.	voice	4b- 4D 4ff 4aa
=33	=33	=33	=33	=33	=33
2IV7	E-:maj7	136.278	newline	voice	2E- 2g 2b- 2dd
2V7	F:7	138.384	.	voice	2F 2a 2cc 2ee-
=34	=34	=34	=34	=34	=34
4I7	B-:maj7	140.49	.	voice	4B- 4dd 4ff 4aa
4iii7	D:min7	141.543	.	voice	4D 4f 4a 4cc
2vi7	G:min7	142.596	.	voice	2G 2b- 2dd 2ff
=35	=35	=35	=35	=35	=35
1-VI	G-:maj	144.703	.	voice	1G- 1b- 1dd-
=36	=36	=36	=36	=36	=36
1V	F:sus4(b7,9)	148.915	.	voice	1F 1a 1cc
=37	=37	=37	=37	=37	=37
*>C2_chorus	*>C2_chorus	*>C2_chorus	*>C2_chorus	*>C2_chorus	*>C2_chorus
2IV	E-:maj	153.127	newline	voice	2E- 2g 2b-
2V7	F:7	155.137	.	voice	2F 2a 2cc 2ee-
=38	=38	=38	=38	=38	=38
4I	B-:maj	157.147	.	voice	4B- 4dd 4ff
4iii7	D:min7	158.152	.	voice	4D 4f 4a 4cc
2vi7	G:min7	159.157	.	voice	2G 2b- 2dd 2ff
=39	=39	=39	=39	=39	=39
2IV	E-:maj	161.166	.	voice	2E- 2g 2b-
2V7	F:7	163.176	.	voice	2F 2a 2cc 2ee-
=40	=40	=40	=40	=40	=40
4I	B-:maj	165.186	.	voice	4B- 4dd 4ff
4iii7	D:min7	166.191	.	voice	4D 4f 4a 4cc
2vi7	G:min7	167.195	.	voice	2G 2b- 2dd 2ff
=41	=41	=41	=41	=41	=41
2IV	E-:maj	169.205	newline	voice	2E- 2g 2b-
2V7	F:7	171.203	.	voice	2F 2a 2cc 2ee-
=42	=42	=42	=42	=42	=42
4I	B-:maj	173.202	.	voice	4B- 4dd 4ff
4iii7	D:min7	174.201	.	voice	4D 4f 4a 4cc
2vi7	G:min7	175.2	.	voice	2G 2b- 2dd 2ff
=43	=43	=43	=43	=43	=43
1-VI	G-:maj	177.198	.	voice	1G- 1b- 1dd-
=44	=44	=44	=44	=44	=44
1V	F:sus4(b7,9)	181.195	.	voice	1F 1a 1cc
=45	=45	=45	=45	=45	=45
1-VI	G-:maj	185.191	newline	voice	1G- 1b- 1dd-
=46	=46	=46	=46	=46	=46
1V	F:sus4(b7,9)	189.051	.	voice	1F 1a 1cc
=47	=47	=47	=47	=47	=47
1-VI	G-:maj	192.91	newline	voice	1G- 1b- 1dd-
=48	=48	=48	=48	=48	=48
1V	F:sus4(b7,9)	196.739	.	voice	1F 1a 1cc
=49	=49	=49	=49	=49	=49
*>C_chorus_fadeout	*>C_chorus_fadeout	*>C_chorus_fadeout	*>C_chorus_fadeout	*>C_chorus_fadeout	*>C_chorus_fadeout
2IV	E-:maj	200.567	newline	voice	2E- 2g 2b-
2V7	F:7	202.809	.	voice	2F 2a 2cc 2ee-
=50	=50	=50	=50	=50	=50
4I	B-:maj	205.05	.	voice	4B- 4dd 4ff
4iii7	D:min7	206.171	.	voice	4D 4f 4a 4cc
2vi7	G:min7	207.292	.	voice	2G 2b- 2dd 2ff
=51	=51	=51	=51	=51	=51
2IV	E-:maj	209.534	.	voice	2E- 2g 2b-
2V7	F:7	211.776	.	voice	2F 2a 2cc 2ee-
=52	=52	=52	=52	=52	=52
4I	B-:maj	214.017	.	voice	4B- 4dd 4ff
4iii7	D:min7	215.138	.	voice	4D 4f 4a 4cc
2vi7	G:min7	216.259	.	voice	2G 2b- 2dd 2ff
1r;	N	218.501	.	r	1r;
1r;	N	221.658	.	r	1r;
*-	*-	*-	*-	*-	*-
!!!OTL: Oh Me Oh My (I'm A Fool For You Baby)
!!!COC: Aretha Franklin
!!!BillboardChartDate: 1972/01/22
!!!BillboardPeak: 73
!!!BillboardWeeksOnChart: 4
!!!SampleTargetRank: 75
!!!SampleActualRank: 75
!!!SampleID#: 1042
!!!RDF**harmony: **recip + pitch class of root + harmonic quality
!!!RDF**harte: Chris Harte's syntax, used by MIREX
!!!RDF**phrase: newline = linebreak in original McGill transcription
!!!RDF**timestamp: McGill audio timestamp in seconds
!!!RDF**leadinstrument: original McGill primary instrumentation annotation
!!!RDT: 2017/01/12/
!!!ENC: Nathaniel Condit-Schultz
!!!EST: Awating manual error checking and editing.
